svgs/introduction/introduction639.svg

<svg xmlns="http://www.w3.org/2000/svg" width="639" height="600" xmlns:v="https://vecta.io/nano"><path fill="#0b0015" d="M0 0h639v600H0z"/><path d="M0 306l53 42 54-18 53-27 53 14 53 47 54-17 53 17 53-34 53 23h54l53-8 53-50v306h-53-53-54-53-53-53-54-53-53-53-54H0z" fill="#26003d"/><path d="M0 377l53-4 54-2 53 12 53-40 53 48 54 1 53-46 53 29 53-21 54 50 53-35 53-11v243h-53-53-54-53-53-53-54-53-53-53-54H0z" fill="#305"/><path d="M0 387l53 59 54-41 53-14 53 12 53 30 54 1 53-34 53 10 53 4 54-13 53-14 53 57v157h-53-53-54-53-53-53-54-53-53-53-54H0z" fill="#3f006f"/><path d="M0 440l53 46 54-39 53-5 53 33 53 8 54-31 53-12 53 21 53-12 54 25 53-26 53-5v158h-53-53-54-53-53-53-54-53-53-53-54H0z" fill="#4b008a"/><path d="M0 504l53 14 54 8 53-24 53 16 53 9 54-46 53 35 53-33 53 11 54 32 53-38 53 2v111h-53-53-54-53-53-53-54-53-53-53-54H0z" fill="#5500a7"/><path d="M0 544l53 4 54 20 53-37 53 12 53-6 54-1 53 22 53-8 53-5 54 19 53 2 53-15v50h-53-53-54-53-53-53-54-53-53-53-54H0z" fill="#5f00c5"/></svg>

<svg id="visual" viewBox="0 0 639 600" width="639" height="600" xmlns="http://www.w3.org/2000/svg" xmlns:xlink="http://www.w3.org/1999/xlink" version="1.1"><rect x="0" y="0" width="639" height="600" fill="#0B0015"></rect><path d="M0 306L53 348L107 330L160 303L213 317L266 364L320 347L373 364L426 330L479 353L533 353L586 345L639 295L639 601L586 601L533 601L479 601L426 601L373 601L320 601L266 601L213 601L160 601L107 601L53 601L0 601Z" fill="#26003d"></path><path d="M0 377L53 373L107 371L160 383L213 343L266 391L320 392L373 346L426 375L479 354L533 404L586 369L639 358L639 601L586 601L533 601L479 601L426 601L373 601L320 601L266 601L213 601L160 601L107 601L53 601L0 601Z" fill="#330055"></path><path d="M0 387L53 446L107 405L160 391L213 403L266 433L320 434L373 400L426 410L479 414L533 401L586 387L639 444L639 601L586 601L533 601L479 601L426 601L373 601L320 601L266 601L213 601L160 601L107 601L53 601L0 601Z" fill="#3f006f"></path><path d="M0 440L53 486L107 447L160 442L213 475L266 483L320 452L373 440L426 461L479 449L533 474L586 448L639 443L639 601L586 601L533 601L479 601L426 601L373 601L320 601L266 601L213 601L160 601L107 601L53 601L0 601Z" fill="#4b008a"></path><path d="M0 504L53 518L107 526L160 502L213 518L266 527L320 481L373 516L426 483L479 494L533 526L586 488L639 490L639 601L586 601L533 601L479 601L426 601L373 601L320 601L266 601L213 601L160 601L107 601L53 601L0 601Z" fill="#5500a7"></path><path d="M0 544L53 548L107 568L160 531L213 543L266 537L320 536L373 558L426 550L479 545L533 564L586 566L639 551L639 601L586 601L533 601L479 601L426 601L373 601L320 601L266 601L213 601L160 601L107 601L53 601L0 601Z" fill="#5f00c5"></path></svg>
